dist/svgs/crypto-icons/icons/busd.svg

<svg width="512" height="511" xmlns="http://www.w3.org/2000/svg"><g fill="#000" fill-rule="nonzero"><path d="M415.661887 158.913208C412.981132 161.811321 410.566038 164.588679 408.150943 167.076226 335.392201 239.86717 262.617358 312.650063 189.826415 385.424906 181.301132 393.950189 172.53434 402.330566 164.34717 411.097358 159.903396 415.927547 157.101887 415.299623 152.754717 410.88 135.349937 393.040503 117.727799 375.418365 99.8883019 358.013585 95.0581132 353.328302 94.8407547 350.309434 99.7433962 345.406792 181.743899 263.663899 263.615597 181.800252 345.358491 99.8158491 349.512453 95.6618868 352.338113 94.5509434 356.999245 99.3328302 374.967547 117.76 393.22566 135.800755 411.459623 154.034717 412.981132 155.38717 414.019623 156.981132 415.661887 158.913208zM511.420377 254.406038C510.575094 258.801509 507.169811 260.830189 504.754717 263.245283 455.019874 313.157233 405.25283 362.956478 355.453585 412.643019 324.443774 443.65283 293.264906 474.493585 262.569057 505.817358 256.627925 511.879245 253.319245 511.903396 247.474717 505.817358 231.124528 488.621887 214.218868 472.006038 197.192453 455.41434 192.024151 450.390943 190.526792 447.323774 196.564528 441.310189 278.146415 360.163019 359.518994 278.854843 440.682264 197.38566 446.236981 191.806792 449.376604 191.637736 454.883019 197.38566 471.595472 214.798491 488.911698 231.631698 505.962264 248.706415 507.89434 250.421132 509.584906 252.522264 511.420377 254.406038zM158.188679 223.613585C156.304906 221.971321 154.493585 220.594717 152.875472 219.000755 134.931321 201.104906 117.107925 183.088302 99.0188679 165.337358 95.0581132 161.449057 94.5992453 158.792453 98.8015094 154.638491 149.550692 104.082516 200.19522 53.4299371 250.735094 2.68075472 254.575094-1.18339623 256.990189-.652075472 260.540377 2.92226415 278.621384 21.2608805 296.831195 39.4706918 315.169811 57.5516981 318.768302 61.1018868 319.154717 63.589434 315.338868 67.3811321 264.589686 117.921006 213.872704 168.541384 163.187925 219.242264 161.811321 220.643019 160.289811 221.826415 158.188679 223.613585zM61.2467925 192.796981C64.8211321 192.796981 66.0769811 195.091321 67.7192453 196.709434 85.6875472 214.581132 103.486792 232.597736 121.575849 250.348679 125.584906 254.285283 125.94717 256.917736 121.720755 261.071698 103.607547 278.78239 85.6955975 296.70239 67.9849057 314.831698 63.3479245 319.661887 60.570566 318.768302 56.3441509 314.469434 38.8910692 296.629937 21.2528302 278.999748 3.42943396 261.578868-1.1109434 257.159245-1.13509434 254.333585 3.42943396 249.986415 21.2528302 232.573585 38.6415094 214.798491 56.3924528 197.192453 57.9622642 195.622642 59.8943396 194.028679 61.2467925 192.796981z"/></g></svg>

<svg xmlns="http://www.w3.org/2000/svg" viewBox="0 0 512 511"><path d="M415.662 158.913c-2.68 2.898-5.096 5.676-7.511 8.163a930472.893 930472.893 0 01-218.325 218.349c-8.525 8.525-17.292 16.906-25.479 25.672-4.444 4.83-7.245 4.203-11.592-.217a3030.842 3030.842 0 00-52.867-52.866c-4.83-4.686-5.047-7.705-.145-12.607 82-81.743 163.873-163.607 245.615-245.591 4.154-4.154 6.98-5.265 11.641-.483 17.969 18.427 36.227 36.468 54.46 54.702 1.522 1.352 2.56 2.946 4.203 4.878zm95.758 95.493c-.845 4.396-4.25 6.424-6.665 8.84a72576.213 72576.213 0 01-149.301 149.397c-31.01 31.01-62.19 61.85-92.885 93.174-5.941 6.062-9.25 6.086-15.094 0-16.35-17.195-33.256-33.811-50.283-50.403-5.168-5.023-6.665-8.09-.627-14.104a75805.444 75805.444 0 00244.117-243.924c5.555-5.58 8.695-5.748 14.201 0 16.712 17.412 34.029 34.246 51.08 51.32 1.931 1.715 3.622 3.816 5.457 5.7zm-353.23-30.792c-1.884-1.643-3.695-3.02-5.314-4.613-17.944-17.896-35.767-35.913-53.856-53.664-3.96-3.888-4.42-6.545-.217-10.699A54077.458 54077.458 0 00250.735 2.681c3.84-3.864 6.255-3.333 9.805.241a5461.232 5461.232 0 0054.63 54.63c3.598 3.55 3.985 6.037.169 9.83a96604.482 96604.482 0 00-152.151 151.86c-1.377 1.401-2.898 2.584-5 4.372zm-96.942-30.817c3.574 0 4.83 2.294 6.472 3.912 17.969 17.872 35.768 35.889 53.857 53.64 4.009 3.936 4.371 6.569.145 10.723a3317.036 3317.036 0 00-53.736 53.76c-4.637 4.83-7.414 3.936-11.64-.363a3344.619 3344.619 0 00-52.916-52.89c-4.54-4.42-4.564-7.245 0-11.593 17.824-17.412 35.213-35.188 52.963-52.794 1.57-1.57 3.502-3.163 4.855-4.395z"/></svg>
